static/assets/head_icons_png/man/bizi/1035273.svg

<svg xmlns="http://www.w3.org/2000/svg" width="9" height="10"><g transform="translate(4 4.9)"><radialGradient id="a" gradientUnits="userSpaceOnUse" gradientTransform="rotate(2.106 434.115 -34.358) scale(.01362)" spreadMethod="pad" cx="0" cy="0" r="819.2" fx="0" fy="0"><stop offset="0" stop-color="#fbbd9d"/><stop offset="1" stop-color="#fedec1"/></radialGradient><path d="M.5 1.6l-.55.75L-.7 3.7l-.05.3-.15.9h-.45l-.3-1.2-.2-.55-.65-1.05-.35-.5.3-.5.2-1.85q0-1.5-1.6-3.05h.05q.5-1.1 3.15-1.1 2.6 0 3.7.6l.25.05L1.95-3.2Q.5-1.85.5.2v.25L.75 1l.1.2-.35.4" fill="url(#a)"/><radialGradient id="b" gradientUnits="userSpaceOnUse" gradientTransform="rotate(6.577 -66.007 86.469) scale(.01003)" spreadMethod="pad" cx="0" cy="0" r="819.2" fx="0" fy="0"><stop offset="0" stop-color="#fbbd9d"/><stop offset="1" stop-color="#fedec1"/></radialGradient><path d="M-.9 4.9l.15-.9.05-.3.65-1.35.55-.75.35-.4.2.5.05.05.45.7.3.6.05.25-.05.45-.4.55-.15.05-.15.05-1.1.2-.1.05h-.1l-.5.2-.1.05H-.9" fill="url(#b)"/><radialGradient id="c" gradientUnits="userSpaceOnUse" gradientTransform="rotate(6.537 -87.353 -105.193) scale(.01049)" spreadMethod="pad" cx="0" cy="0" r="819.2" fx="0" fy="0"><stop offset="0" stop-color="#fbbd9d"/><stop offset="1" stop-color="#fedec1"/></radialGradient><path d="M-2.85 1.6l.35.5.65 1.05.2.55.3 1.2h-.05l-.6-.25h-.1l-.1-.05-1.05-.2-.35-.05q-.4-.2-.4-.7 0-.75.6-1.5l.45-.45.1-.1" fill="url(#c)"/><radialGradient id="d" gradientUnits="userSpaceOnUse" gradientTransform="matrix(.00348 0 0 .00514 -2.85 -.6)" spreadMethod="pad" cx="0" cy="0" r="819.2" fx="210531" fy="0"><stop offset=".337" stop-color="#f9c29f"/><stop offset="1" stop-color="#fedec1" stop-opacity="0"/></radialGradient><path d="M-1.9 3.3q-.65-.65-.6-1.6l.1-.8-.15.2.2-1.85q0-1.5-1.6-3.05l.3-.05.1-.05q1.95.6 1.85 3.15l-.15 4.1-.05-.05" fill="url(#d)"/><radialGradient id="e" gradientUnits="userSpaceOnUse" gradientTransform="matrix(.00409 0 0 .00409 -1.05 3.9)" spreadMethod="pad" cx="0" cy="0" r="819.2" fx="0" fy="0"><stop offset="0" stop-color="#f39b61"/><stop offset="1" stop-color="#f8be98"/></radialGradient><path d="M-1.85 3.35l.05.05.85.15q.55-.1.85-.45l.15-.2.2-.55.05-.3V1.8l-.05-.1-.05-.45h.05l.1.05V1L.3.1l.45.9.3.7.05.05.45.7.3.6.05.25-.05.45-.4.55-.15.05-.15.05-1.1.2-.1.05h-.1l-.5.2-.1.05h-.65l-.6-.25h-.1l-.1-.05-1.05-.2-.35-.05q-.4-.2-.4-.7 0-.75.6-1.5l.45-.45.4-.6.15-.2-.1.8q-.05.95.6 1.6l.05.05m3.15-.8L.95 2.2l-.2-.15-.4 1.1H.4l.5.15.25.05.25-.3-.05-.3V2.7l-.05-.15m-4.4-.2q-.5.45-.5.85l.15.45.85-.2h.05l-.55-.95v-.15" fill="url(#e)"/><radialGradient id="f" gradientUnits="userSpaceOnUse" gradientTransform="matrix(.00406 0 0 .00595 .7 -.25)" spreadMethod="pad" cx="0" cy="0" r="819.2" fx="210531" fy="0"><stop offset=".337" stop-color="#f9c29f"/><stop offset="1" stop-color="#fedec1" stop-opacity="0"/></radialGradient><path d="M.35 1v.3l-.1-.05H.2l.05.45.05.1v.25l-.05.3-.2.55-.15.2.05-.45-.05-.6L-.2 1l-.15-2.7q-.05-.85 1.3-2l-.5 1.25L.3-1.2V.1l.05.9" fill="url(#f)"/><path d="M-2.55 3.6l.55.2.05.1q.45.4.75.4t.8-.35q.45-.3.85-.3.35 0 .7.3l-.6.1-.85.1-.1.05-.65.25L-2.2 4h-.4l-.35.15h-.2v-.1L-3.2 4q.4-.4.65-.4" fill="#823909"/><radialGradient id="g" gradientUnits="userSpaceOnUse" gradientTransform="matrix(.00056 .00002 .00003 .002 -.95 -.7)" spreadMethod="pad" cx="0" cy="0" r="819.2" fx="0" fy="0"><stop offset=".314" stop-color="#fff" stop-opacity=".573"/><stop offset="1" stop-color="#fff" stop-opacity="0"/></radialGradient><path d="M-1.2-1.85l.25-.45.3.45v.05q.15.5.15 1.15L-.6.4v.1l-.1.25-.2.2-.2-.2V.7l-.1-.25-.1-1.15.1-1.15" fill="url(#g)"/><radialGradient id="h" gradientUnits="userSpaceOnUse" gradientTransform="matrix(.00047 .00003 -.00005 .00076 -.9 2.6)" spreadMethod="pad" cx="0" cy="0" r="819.2" fx="0" fy="0"><stop offset=".314" stop-color="#fff" stop-opacity=".592"/><stop offset="1" stop-color="#fff" stop-opacity="0"/></radialGradient><path d="M-1.55 3l-.1-.35.1-.3.15-.1.45-.2.5.2q.2.2.15.45l-.2.45-.5.15-.5-.25-.05-.05" fill="url(#h)"/><radialGradient id="i" gradientUnits="userSpaceOnUse" gradientTransform="matrix(.00623 0 0 .00623 .2 -2.5)" spreadMethod="pad" cx="0" cy="0" r="819.2" fx="0" fy="0"><stop offset="0" stop-color="#d66d3e" stop-opacity=".812"/><stop offset="1" stop-color="#ffdec2" stop-opacity="0"/></radialGradient><path d="M2.8-4.35l1.25.25-1.85.7Q.5-2 .5.2v2.15l-.3.75q-.25.7-1.4.6.75-.4.9-1.2l.1-5q.4-1.3 3-1.85" fill="url(#i)"/></g></svg>

<?xml version="1.0" encoding="utf-8"?>
<svg version="1.1" id="Layer_1"
xmlns="http://www.w3.org/2000/svg"
xmlns:xlink="http://www.w3.org/1999/xlink"
xmlns:author="http://www.sothink.com"
width="9px" height="10px"
xml:space="preserve">
<g id="493" transform="matrix(1, 0, 0, 1, 4, 4.9)">
<radialGradient
id="RadialGradID_4238" gradientUnits="userSpaceOnUse" gradientTransform="matrix(0.0136108, 0.000473022, -0.000473022, 0.0136108, -0.9, -15.1)" spreadMethod ="pad" cx="0" cy="0" r="819.2" fx="0" fy="0" >
<stop  offset="0"  style="stop-color:#FBBD9D;stop-opacity:1" />
<stop  offset="1"  style="stop-color:#FEDEC1;stop-opacity:1" />
</radialGradient>
<path style="fill:url(#RadialGradID_4238) " d="M0.5,1.6L-0.05 2.35L-0.7 3.7L-0.75 4L-0.9 4.9L-1.35 4.9L-1.65 3.7L-1.85 3.15L-2.5 2.1L-2.85 1.6L-2.55 1.1L-2.35 -0.75Q-2.35 -2.25 -3.95 -3.8L-3.9 -3.8Q-3.4 -4.9 -0.75 -4.9Q1.85 -4.9 2.95 -4.3L3.2 -4.25L1.95 -3.2Q0.5 -1.85 0.5 0.2L0.5 0.45L0.75 1L0.85 1.2L0.5 1.6" />
<radialGradient
id="RadialGradID_4239" gradientUnits="userSpaceOnUse" gradientTransform="matrix(0.00996399, 0.00112915, -0.00112915, 0.00996399, 9.3, 8)" spreadMethod ="pad" cx="0" cy="0" r="819.2" fx="0" fy="0" >
<stop  offset="0"  style="stop-color:#FBBD9D;stop-opacity:1" />
<stop  offset="1"  style="stop-color:#FEDEC1;stop-opacity:1" />
</radialGradient>
<path style="fill:url(#RadialGradID_4239) " d="M-0.9,4.9L-0.75 4L-0.7 3.7L-0.05 2.35L0.5 1.6L0.85 1.2L1.05 1.7L1.1 1.75L1.55 2.45L1.85 3.05L1.9 3.3L1.85 3.75L1.45 4.3L1.3 4.35L1.15 4.4L0.05 4.6L-0.05 4.65L-0.15 4.65L-0.65 4.85L-0.75 4.9L-0.9 4.9" />
<radialGradient
id="RadialGradID_4240" gradientUnits="userSpaceOnUse" gradientTransform="matrix(0.0104218, 0.00117493, -0.00117493, 0.0104218, -12.35, 9.1)" spreadMethod ="pad" cx="0" cy="0" r="819.2" fx="0" fy="0" >
<stop  offset="0"  style="stop-color:#FBBD9D;stop-opacity:1" />
<stop  offset="1"  style="stop-color:#FEDEC1;stop-opacity:1" />
</radialGradient>
<path style="fill:url(#RadialGradID_4240) " d="M-2.85,1.6L-2.5 2.1L-1.85 3.15L-1.65 3.7L-1.35 4.9L-1.4 4.9L-2 4.65L-2.1 4.65L-2.2 4.6L-3.25 4.4L-3.6 4.35Q-4 4.15 -4 3.65Q-4 2.9 -3.4 2.15L-2.95 1.7L-2.85 1.6" />
<radialGradient
id="RadialGradID_4241" gradientUnits="userSpaceOnUse" gradientTransform="matrix(0.003479, 0, 0, 0.00514221, -2.85, -0.6)" spreadMethod ="pad" cx="0" cy="0" r="819.2" fx="210531" fy="0" >
<stop  offset="0.337255"  style="stop-color:#F9C29F;stop-opacity:1" />
<stop  offset="1"  style="stop-color:#FEDEC1;stop-opacity:0" />
</radialGradient>
<path style="fill:url(#RadialGradID_4241) " d="M-1.9,3.3Q-2.55 2.65 -2.5 1.7L-2.4 0.9L-2.55 1.1L-2.35 -0.75Q-2.35 -2.25 -3.95 -3.8L-3.65 -3.85L-3.55 -3.9Q-1.6 -3.3 -1.7 -0.75L-1.85 3.35L-1.9 3.3" />
<radialGradient
id="RadialGradID_4242" gradientUnits="userSpaceOnUse" gradientTransform="matrix(0.00408936, 0, 0, 0.00408936, -1.05, 3.9)" spreadMethod ="pad" cx="0" cy="0" r="819.2" fx="0" fy="0" >
<stop  offset="0"  style="stop-color:#F39B61;stop-opacity:1" />
<stop  offset="1"  style="stop-color:#F8BE98;stop-opacity:1" />
</radialGradient>
<path style="fill:url(#RadialGradID_4242) " d="M-1.85,3.35L-1.8 3.4L-0.95 3.55Q-0.4 3.45 -0.1 3.1L0.05 2.9L0.25 2.35L0.3 2.05L0.3 1.85L0.3 1.8L0.25 1.7L0.2 1.25L0.25 1.25L0.35 1.3L0.35 1L0.3 0.1L0.75 1L1.05 1.7L1.1 1.75L1.55 2.45L1.85 3.05L1.9 3.3L1.85 3.75L1.45 4.3L1.3 4.35L1.15 4.4L0.05 4.6L-0.05 4.65L-0.15 4.65L-0.65 4.85L-0.75 4.9L-1.4 4.9L-2 4.65L-2.1 4.65L-2.2 4.6L-3.25 4.4L-3.6 4.35Q-4 4.15 -4 3.65Q-4 2.9 -3.4 2.15L-2.95 1.7L-2.55 1.1L-2.4 0.9L-2.5 1.7Q-2.55 2.65 -1.9 3.3L-1.85 3.35M1.3,2.55L0.95 2.2L0.75 2.05L0.35 3.15L0.4 3.15L0.9 3.3L1.15 3.35L1.4 3.05L1.35 2.75L1.35 2.7L1.3 2.55M-3.1,2.35Q-3.6 2.8 -3.6 3.2L-3.45 3.65L-2.6 3.45L-2.55 3.45L-3.1 2.5L-3.1 2.35" />
<radialGradient
id="RadialGradID_4243" gradientUnits="userSpaceOnUse" gradientTransform="matrix(0.00405884, 0, 0, 0.00595093, 0.7, -0.25)" spreadMethod ="pad" cx="0" cy="0" r="819.2" fx="210531" fy="0" >
<stop  offset="0.337255"  style="stop-color:#F9C29F;stop-opacity:1" />
<stop  offset="1"  style="stop-color:#FEDEC1;stop-opacity:0" />
</radialGradient>
<path style="fill:url(#RadialGradID_4243) " d="M0.35,1L0.35 1.3L0.25 1.25L0.2 1.25L0.25 1.7L0.3 1.8L0.3 1.85L0.3 2.05L0.25 2.35L0.05 2.9L-0.1 3.1L-0.05 2.65L-0.1 2.05L-0.2 1L-0.35 -1.7Q-0.4 -2.55 0.95 -3.7L0.45 -2.45L0.3 -1.2L0.3 0.1L0.35 1" />
<path style="fill:#823909;fill-opacity:1" d="M-2.55,3.6L-2 3.8L-1.95 3.9Q-1.5 4.3 -1.2 4.3Q-0.9 4.3 -0.4 3.95Q0.05 3.65 0.45 3.65Q0.8 3.65 1.15 3.95L0.55 4.05L-0.3 4.15L-0.4 4.2L-1.05 4.45L-2.2 4L-2.6 4L-2.95 4.15L-3 4.15L-3.15 4.15L-3.15 4.05L-3.2 4Q-2.8 3.6 -2.55 3.6" />
<radialGradient
id="RadialGradID_4244" gradientUnits="userSpaceOnUse" gradientTransform="matrix(0.000564575, 1.52588e-005, 3.05176e-005, 0.0019989, -0.95, -0.7)" spreadMethod ="pad" cx="0" cy="0" r="819.2" fx="0" fy="0" >
<stop  offset="0.313725"  style="stop-color:#FFFFFF;stop-opacity:0.572549" />
<stop  offset="1"  style="stop-color:#FFFFFF;stop-opacity:0" />
</radialGradient>
<path style="fill:url(#RadialGradID_4244) " d="M-1.2,-1.85L-0.95 -2.3L-0.65 -1.85L-0.65 -1.8Q-0.5 -1.3 -0.5 -0.65L-0.6 0.4L-0.6 0.5L-0.7 0.75L-0.9 0.95L-1.1 0.75L-1.1 0.7L-1.2 0.45L-1.3 -0.7L-1.2 -1.85" />
<radialGradient
id="RadialGradID_4245" gradientUnits="userSpaceOnUse" gradientTransform="matrix(0.000473022, 3.05176e-005, -4.57764e-005, 0.000762939, -0.9, 2.6)" spreadMethod ="pad" cx="0" cy="0" r="819.2" fx="0" fy="0" >
<stop  offset="0.313725"  style="stop-color:#FFFFFF;stop-opacity:0.592157" />
<stop  offset="1"  style="stop-color:#FFFFFF;stop-opacity:0" />
</radialGradient>
<path style="fill:url(#RadialGradID_4245) " d="M-1.55,3L-1.65 2.65L-1.55 2.35L-1.4 2.25L-0.95 2.05L-0.45 2.25Q-0.25 2.45 -0.3 2.7L-0.5 3.15L-1 3.3L-1.5 3.05L-1.55 3" />
<radialGradient
id="RadialGradID_4246" gradientUnits="userSpaceOnUse" gradientTransform="matrix(0.00622559, 0, 0, 0.00622559, 0.2, -2.5)" spreadMethod ="pad" cx="0" cy="0" r="819.2" fx="0" fy="0" >
<stop  offset="0"  style="stop-color:#D66D3E;stop-opacity:0.811765" />
<stop  offset="1"  style="stop-color:#FFDEC2;stop-opacity:0" />
</radialGradient>
<path style="fill:url(#RadialGradID_4246) " d="M2.8,-4.35L4.05 -4.1L2.2 -3.4Q0.5 -2 0.5 0.2L0.5 2.35L0.2 3.1Q-0.05 3.8 -1.2 3.7Q-0.45 3.3 -0.3 2.5L-0.2 -2.5Q0.2 -3.8 2.8 -4.35" />
</g>
</svg>
